lib/brands/logos/ada.svg

<svg xmlns="http://www.w3.org/2000/svg" fill="none" aria-hidden="true" viewBox="0 0 183 65"><g id="ADA"><g id="Vector"><path fill="#339933" fill-rule="evenodd" d="M58.5837 58.8808H46.9311L43.1348 47.8994H20.0216L16.3017 58.8808H4.57501L25.0378 5.53639H33.4914C36.3594 5.53639 38.202 6.41833 38.952 8.46923C39.6997 10.5132 49.0213 34.2421 49.0213 34.2421H38.121L31.503 16.2192L23.1234 38.9226H46.5283C49.6672 38.9226 51.3917 39.9365 52.2227 42.4874L58.5837 58.8808Z" clip-rule="evenodd"/><path fill="#339933" fill-rule="evenodd" d="M160.786 58.8831H149.131L145.335 47.9017H122.224L118.502 58.8831H106.778L127.24 5.53639H135.694C138.562 5.53639 140.405 6.42064 141.152 8.47155C141.9 10.5155 151.222 34.2444 151.222 34.2444H140.324L133.706 16.2215L125.326 38.9249H148.731C151.87 38.9249 153.592 39.9388 154.425 42.4897L161.261 59.353L160.786 58.8831ZM82.1205 49.235C92.4213 49.235 96.7801 44.2629 96.7801 32.2445C96.7801 20.3742 92.6482 14.8835 83.477 14.8835H73.1762V49.235H82.1205ZM62.2828 5.53639H83.4793C100.018 5.53639 108.136 14.2169 108.136 32.2445C108.136 42.1888 104.979 49.6841 99.3403 54.1331C94.0787 58.2882 88.2131 58.8808 80.4747 58.8808H62.2805L62.2828 5.53639Z" clip-rule="evenodd"/><path fill="#339933" fill-rule="evenodd" d="M168.719 51.0847H169.624C170.682 51.0847 171.536 50.7375 171.536 49.8926C171.536 49.1472 170.981 48.6518 169.777 48.6518C169.272 48.6518 168.92 48.7028 168.719 48.7514V51.0847ZM168.668 55.6494H166.758V47.5593C167.513 47.4111 168.569 47.263 169.927 47.263C171.485 47.263 172.189 47.5106 172.793 47.9065C173.245 48.2537 173.596 48.9018 173.596 49.6426C173.596 50.587 172.893 51.2814 171.888 51.58V51.6796C172.691 51.9273 173.145 52.5731 173.397 53.6657C173.647 54.9064 173.798 55.4018 173.999 55.6494H171.939C171.684 55.3532 171.536 54.6564 171.284 53.7143C171.133 52.8208 170.631 52.4249 169.573 52.4249H168.67L168.668 55.6494ZM169.927 44.9296C166.305 44.9296 163.592 47.8579 163.592 51.4319C163.592 55.0545 166.305 57.9341 170.027 57.9341C173.647 57.9828 176.312 55.0545 176.312 51.4296C176.312 47.8579 173.65 44.9296 169.976 44.9296H169.927ZM170.027 43.2908C174.754 43.2908 178.425 46.9157 178.425 51.4319C178.425 56.0476 174.754 59.6216 169.976 59.6216C165.249 59.6216 161.478 56.0476 161.478 51.4319C161.478 46.9157 165.252 43.2908 169.976 43.2908H170.027Z" clip-rule="evenodd"/></g></g></svg>

<svg xmlns="http://www.w3.org/2000/svg" fill="none" aria-hidden="true" viewBox="0 0 183 65"><path fill="#393" fill-rule="evenodd" d="M58.584 58.88H46.93L43.135 47.9H20.022l-3.72 10.98H4.575L25.038 5.537h8.453c2.868 0 4.711.882 5.461 2.933.748 2.044 10.07 25.773 10.07 25.773H38.12L31.503 16.22l-8.38 22.704h23.405c3.14 0 4.864 1.014 5.695 3.564l6.36 16.394Zm102.202.003h-11.655l-3.796-10.981h-23.111l-3.722 10.981h-11.724L127.24 5.536h8.454c2.868 0 4.711.885 5.458 2.936.748 2.043 10.07 25.772 10.07 25.772h-10.898l-6.618-18.023-8.38 22.704h23.405c3.139 0 4.861 1.014 5.694 3.565l6.836 16.863-.475-.47Zm-78.665-9.648c10.3 0 14.66-4.972 14.66-16.99 0-11.87-4.133-17.361-13.304-17.361h-10.3v34.351h8.944ZM62.283 5.536h21.196c16.539 0 24.657 8.68 24.657 26.709 0 9.944-3.157 17.44-8.796 21.888-5.261 4.155-11.127 4.748-18.865 4.748H62.28l.003-53.345Zm106.436 45.549h.905c1.058 0 1.912-.348 1.912-1.192 0-.746-.555-1.241-1.759-1.241-.505 0-.857.05-1.058.1v2.333Zm-.051 4.565h-1.91v-8.09a16.3 16.3 0 0 1 3.169-.297c1.558 0 2.262.248 2.866.644.452.347.803.995.803 1.736 0 .944-.703 1.638-1.708 1.937v.1c.803.247 1.257.893 1.509 1.986.25 1.24.401 1.736.602 1.984h-2.06c-.255-.297-.403-.994-.655-1.936-.151-.893-.653-1.29-1.711-1.29h-.903l-.002 3.226Zm1.259-10.72c-3.622 0-6.335 2.928-6.335 6.502 0 3.623 2.713 6.502 6.435 6.502 3.62.049 6.285-2.88 6.285-6.504 0-3.572-2.662-6.5-6.336-6.5h-.049Zm.1-1.64c4.727 0 8.398 3.626 8.398 8.142 0 4.616-3.671 8.19-8.449 8.19-4.727 0-8.498-3.574-8.498-8.19 0-4.516 3.774-8.141 8.498-8.141h.051Z" clip-rule="evenodd"/></svg>
